findly-builder/apps/searchassist/src/assets/icons/actions/empty-actions.svg

<svg width="120" height="120" viewBox="0 0 120 120" fill="none" xmlns="http://www.w3.org/2000/svg">
<path d="M108.943 88.1437C107.426 88.1044 78.7496 88.14 78.7496 88.14V46.875H109.687C113.312 46.875 116.25 43.9369 116.25 40.3125C116.25 36.6881 113.312 33.75 109.687 33.75H107.075C105.208 33.75 103.475 32.4731 103.175 30.63C102.795 28.2806 104.597 26.25 106.875 26.25C109.982 26.25 112.5 23.7319 112.5 20.625C112.5 17.5181 109.982 15 106.875 15H83.4371C81.8846 15 80.6246 13.74 80.6246 12.1875C80.6246 10.635 81.8846 9.375 83.4371 9.375H90.669C93.1215 9.375 95.3565 7.61062 95.6003 5.17125C95.8815 2.36437 93.6859 0 90.9371 0H29.3303C26.8778 0 24.6428 1.76438 24.399 4.20375C24.1178 7.01063 26.3134 9.375 29.0621 9.375H31.674C33.5415 9.375 35.274 10.6519 35.574 12.495C35.9546 14.8444 34.1528 16.875 31.8746 16.875H7.49964C4.39276 16.875 1.87464 19.3931 1.87464 22.5C1.87464 25.6069 4.39276 28.125 7.49964 28.125H9.37464C12.4815 28.125 14.9996 30.6431 14.9996 33.75C14.9996 36.8569 12.4815 39.375 9.37464 39.375H7.85401C3.94276 39.375 0.43276 42.2137 0.0390102 46.1063C-0.412865 50.5725 3.12151 54.375 7.49964 54.375H41.2496V88.14H9.72901C5.81776 88.14 2.30776 90.9788 1.91401 94.8712C1.46214 99.3375 4.99651 103.125 9.37464 103.125H27.339C28.8146 103.206 29.9996 104.443 29.9996 105.938C29.9996 107.484 28.734 108.75 27.1871 108.75H22.4996C19.4059 108.75 16.8746 111.281 16.8746 114.375C16.8746 117.469 19.4059 120 22.4996 120H97.4996C100.078 120 102.187 117.891 102.187 115.312C102.187 112.734 100.078 110.625 97.4996 110.625H84.3746C82.3121 110.625 80.6246 108.938 80.6246 106.875C80.6246 104.865 82.2315 103.222 84.2228 103.14H108.395C111.956 103.14 115.627 100.314 116.162 96.7931C116.853 92.2313 113.357 88.2562 108.943 88.1437Z" fill="url(#paint0_radial)"/>
<path d="M84.7403 20.625H35.2591C30.9034 20.625 26.9397 23.1394 25.0834 27.0788L8.14844 63L41.2497 78.75H74.9997L111.851 63L94.9178 27.0788C93.0597 23.1394 89.0959 20.625 84.7403 20.625Z" fill="url(#paint1_linear)"/>
<path d="M84.7407 30C85.4625 30 86.1282 30.4219 86.4375 31.0762L102.051 63.93L73.08 80.625H43.3669L15.6338 68.9456L33.5625 31.0762C33.8719 30.4219 34.5375 30 35.2594 30H84.7407Z" fill="url(#paint2_linear)"/>
<path d="M73.125 34.6875C73.125 37.2769 75.2231 39.375 77.8125 39.375C80.4019 39.375 82.5 41.4731 82.5 44.0625C82.5 46.6519 80.4019 48.75 77.8125 48.75H68.4375C65.8481 48.75 63.75 50.8481 63.75 53.4375C63.75 56.0269 65.8481 58.125 68.4375 58.125C71.0269 58.125 73.125 60.2231 73.125 62.8125C73.125 65.4019 71.0269 67.5 68.4375 67.5H60.9375C58.3481 67.5 56.25 69.5981 56.25 72.1875C56.25 74.7769 58.3481 76.875 60.9375 76.875H79.5881L102.051 63.93L86.4375 31.0762C86.1281 30.4219 85.4625 30 84.7406 30H77.8125C75.2231 30 73.125 32.0981 73.125 34.6875Z" fill="url(#paint3_linear)"/>
<path d="M106.875 60H85.26C83.4806 60 81.8269 60.8569 80.7562 62.2763C75.7969 68.8575 67.9369 73.125 59.0625 73.125C50.1881 73.125 42.3281 68.8575 37.3688 62.2763C36.3 60.8569 34.6444 60 32.865 60H13.125C10.0181 60 7.5 62.5181 7.5 65.625V88.125C7.5 94.3387 12.5363 99.375 18.75 99.375H101.25C107.464 99.375 112.5 94.3387 112.5 88.125V65.625C112.5 62.5181 109.982 60 106.875 60Z" fill="url(#paint4_linear)"/>
<defs>
<radialGradient id="paint0_radial" cx="0" cy="0" r="1" gradientUnits="userSpaceOnUse" gradientTransform="translate(58.1246 60) scale(59.07)">
<stop stop-color="#AFEEFF"/>
<stop offset="0.193" stop-color="#BBF1FF"/>
<stop offset="0.703" stop-color="#D7F8FF"/>
<stop offset="1" stop-color="#E1FAFF"/>
</radialGradient>
<linearGradient id="paint1_linear" x1="59.9997" y1="94.6575" x2="59.9997" y2="22.0387" gradientUnits="userSpaceOnUse">
<stop stop-color="#FF8B67"/>
<stop offset="0.847" stop-color="#FFA76A"/>
<stop offset="1" stop-color="#FFAD6B"/>
</linearGradient>
<linearGradient id="paint2_linear" x1="58.8413" y1="56.1188" x2="58.8413" y2="-24.5213" gradientUnits="userSpaceOnUse">
<stop stop-color="#FF8B67"/>
<stop offset="0.847" stop-color="#FFA76A"/>
<stop offset="1" stop-color="#FFAD6B"/>
</linearGradient>
<linearGradient id="paint3_linear" x1="79.1494" y1="76.875" x2="79.1494" y2="30" gradientUnits="userSpaceOnUse">
<stop offset="0.104" stop-color="#FF8663"/>
<stop offset="0.989" stop-color="#FE8D6B"/>
</linearGradient>
<linearGradient id="paint4_linear" x1="60" y1="109.693" x2="60" y2="57.5869" gradientUnits="userSpaceOnUse">
<stop stop-color="#FFC050"/>
<stop offset="1" stop-color="#FFBD85"/>
</linearGradient>
</defs>
</svg>

<svg width="120" height="120" fill="none" xmlns="http://www.w3.org/2000/svg"><path d="M108.943 88.144c-1.517-.04-30.193-.004-30.193-.004V46.875h30.937a6.563 6.563 0 1 0 0-13.125h-2.612c-1.867 0-3.6-1.277-3.9-3.12a3.755 3.755 0 0 1 3.7-4.38 5.625 5.625 0 1 0 0-11.25H83.437a2.814 2.814 0 0 1 0-5.625h7.232c2.453 0 4.688-1.764 4.931-4.204A4.688 4.688 0 0 0 90.937 0H29.33c-2.452 0-4.687 1.764-4.931 4.204a4.688 4.688 0 0 0 4.663 5.171h2.612c1.867 0 3.6 1.277 3.9 3.12a3.754 3.754 0 0 1-3.7 4.38H7.5a5.625 5.625 0 1 0 0 11.25h1.875a5.625 5.625 0 1 1 0 11.25H7.854c-3.911 0-7.421 2.839-7.815 6.731-.452 4.466 3.083 8.269 7.46 8.269h33.75V88.14H9.73c-3.911 0-7.421 2.839-7.815 6.731-.452 4.467 3.083 8.254 7.46 8.254H27.34a2.828 2.828 0 0 1 2.66 2.813 2.82 2.82 0 0 1-2.812 2.812H22.5c-3.094 0-5.625 2.531-5.625 5.625S19.405 120 22.5 120h75a4.7 4.7 0 0 0 4.687-4.688 4.7 4.7 0 0 0-4.687-4.687H84.375a3.76 3.76 0 0 1-3.75-3.75c0-2.01 1.606-3.653 3.598-3.735h24.172c3.561 0 7.232-2.826 7.767-6.347.691-4.562-2.805-8.537-7.219-8.65Z" fill="url(#a)"/><path d="M84.74 20.625H35.26a11.25 11.25 0 0 0-10.177 6.454L8.148 63 41.25 78.75H75L111.85 63 94.918 27.079a11.253 11.253 0 0 0-10.178-6.454Z" fill="url(#b)"/><path d="M84.74 30c.723 0 1.388.422 1.698 1.076L102.05 63.93 73.08 80.625H43.367l-27.733-11.68 17.928-37.869A1.885 1.885 0 0 1 35.26 30h49.482Z" fill="url(#c)"/><path d="M73.125 34.688a4.687 4.687 0 0 0 4.688 4.687 4.687 4.687 0 1 1 0 9.375h-9.376a4.687 4.687 0 1 0 0 9.375 4.687 4.687 0 1 1 0 9.375h-7.5a4.687 4.687 0 1 0 0 9.375h18.651l22.463-12.945-15.614-32.854A1.885 1.885 0 0 0 84.742 30h-6.928a4.687 4.687 0 0 0-4.688 4.688Z" fill="url(#d)"/><path d="M106.875 60H85.26c-1.78 0-3.433.857-4.504 2.276-4.96 6.581-12.82 10.849-21.694 10.849-8.874 0-16.734-4.267-21.693-10.849C36.3 60.856 34.644 60 32.865 60h-19.74A5.625 5.625 0 0 0 7.5 65.625v22.5c0 6.214 5.036 11.25 11.25 11.25h82.5c6.214 0 11.25-5.036 11.25-11.25v-22.5A5.625 5.625 0 0 0 106.875 60Z" fill="url(#e)"/><defs><linearGradient id="b" x1="60" y1="94.657" x2="60" y2="22.039" gradientUnits="userSpaceOnUse"><stop stop-color="#FF8B67"/><stop offset=".847" stop-color="#FFA76A"/><stop offset="1" stop-color="#FFAD6B"/></linearGradient><linearGradient id="c" x1="58.841" y1="56.119" x2="58.841" y2="-24.521" gradientUnits="userSpaceOnUse"><stop stop-color="#FF8B67"/><stop offset=".847" stop-color="#FFA76A"/><stop offset="1" stop-color="#FFAD6B"/></linearGradient><linearGradient id="d" x1="79.149" y1="76.875" x2="79.149" y2="30" gradientUnits="userSpaceOnUse"><stop offset=".104" stop-color="#FF8663"/><stop offset=".989" stop-color="#FE8D6B"/></linearGradient><linearGradient id="e" x1="60" y1="109.693" x2="60" y2="57.587" gradientUnits="userSpaceOnUse"><stop stop-color="#FFC050"/><stop offset="1" stop-color="#FFBD85"/></linearGradient><radialGradient id="a" cx="0" cy="0" r="1" gradientUnits="userSpaceOnUse" gradientTransform="translate(58.125 60) scale(59.07)"><stop stop-color="#AFEEFF"/><stop offset=".193" stop-color="#BBF1FF"/><stop offset=".703" stop-color="#D7F8FF"/><stop offset="1" stop-color="#E1FAFF"/></radialGradient></defs></svg>
